;FLAVOR:Marlin
;TIME:31672
;Filament used: 26.7704m
;Layer height: 0.2
;MINX:26.875
;MINY:14
;MINZ:0.3
;MAXX:193.125
;MAXY:206
;MAXZ:9.9
;Generated with Creality Slicer 4.8.2-172
M140 S80
M105
M190 S80
M104 S235
M105
M109 S235
M82 ;absolute extrusion mode

G28 ;Home

G92 E0 ;Reset Extruder
G1 Z2.0 F3000 ;Move Z Axis up
G1 X10.1 Y20 Z0.28 F5000.0 ;Move to start position
G1 X10.1 Y200.0 Z0.28 F1500.0 E15 ;Draw the first line
G1 X10.4 Y200.0 Z0.28 F5000.0 ;Move to side a little
G1 X10.4 Y20 Z0.28 F1500.0 E30 ;Draw the second line
G92 E0 ;Reset Extruder
G1 Z2.0 F3000 ;Move Z Axis up

G92 E0
G92 E0
G1 F1200 E-3
;LAYER_COUNT:49
;LAYER:0
M107
G0 F6000 X29.853 Y20.734 Z0.3
;TYPE:SKIRT
G1 F1200 E0
G1 F900 X30.265 Y20.181 E0.03401
G1 X30.933 Y19.368 E0.08592
G1 X31.058 Y19.23 E0.0951
G1 X31.667 Y18.61 E0.13797
G1 X32.188 Y18.119 E0.17328
G1 X32.997 Y17.427 E0.22579
G1 X33.161 Y17.3 E0.23602
G1 X33.463 Y17.074 E0.25463
G1 X33.592 Y16.981 E0.26247
G1 X34.054 Y16.665 E0.29008
G1 X34.348 Y16.475 E0.30734
G1 X34.882 Y16.152 E0.33813
G1 X35.086 Y16.036 E0.3497
G1 X35.548 Y15.787 E0.37559
G1 X35.69 Y15.715 E0.38344
G1 X36.459 Y15.362 E0.42518
G1 X37.08 Y15.105 E0.45833
G1 X38.182 Y14.716 E0.51597
G1 X38.318 Y14.676 E0.52297
G1 X38.763 Y14.555 E0.54571
G1 X39.305 Y14.42 E0.57326
G1 X40.364 Y14.211 E0.62651
G1 X40.602 Y14.176 E0.63837
G1 X41.449 Y14.085 E0.68039
G1 X42.163 Y14.036 E0.71569
G1 X42.485 Y14.018 E0.7316
G1 X42.638 Y14.012 E0.73915
G1 X42.968 Y14.004 E0.75543
G1 X43.396 Y14.001 E0.77654
G1 X161.417 Y14 E6.59792
G1 X162.275 Y14.011 E6.64024
G1 X163.211 Y14.064 E6.68648
G1 X164.14 Y14.197 E6.73277
G1 X165.053 Y14.409 E6.779
G1 X165.946 Y14.697 E6.82528
G1 X166.81 Y15.061 E6.87153
G1 X167.641 Y15.497 E6.91782
G1 X168.431 Y16.002 E6.96406
G1 X169.175 Y16.572 E7.01029
G1 X169.868 Y17.204 E7.05656
G1 X170.505 Y17.893 E7.10284
G1 X171.081 Y18.633 E7.14909
G1 X171.592 Y19.42 E7.19538
G1 X172.033 Y20.247 E7.24161
G1 X172.403 Y21.109 E7.28788
G1 X172.76 Y22.227 E7.34577
G1 X172.893 Y22.736 E7.37171
G1 X173.587 Y25.244 E7.50007
G1 X174.322 Y27.641 E7.62374
G1 X175.14 Y30.055 E7.74946
G1 X176.004 Y32.389 E7.87222
G1 X176.946 Y34.728 E7.99659
G1 X177.959 Y37.052 E8.12164
G1 X179.023 Y39.312 E8.24485
G1 X180.149 Y41.543 E8.36811
G1 X181.365 Y43.791 E8.49418
G1 X182.608 Y45.939 E8.61659
G1 X183.952 Y48.118 E8.74287
G1 X185.318 Y50.198 E8.86561
G1 X186.751 Y52.252 E8.98914
G1 X188.245 Y54.27 E9.11299
G1 X190.719 Y57.377 E9.30889
G1 X191.272 Y58.135 E9.35517
G1 X191.758 Y58.937 E9.40143
G1 X192.173 Y59.778 E9.44769
G1 X192.516 Y60.651 E9.49395
G1 X192.783 Y61.55 E9.54021
G1 X192.972 Y62.469 E9.58649
G1 X193.083 Y63.4 E9.63273
G1 X193.113 Y64.069 E9.66577
G1 X193.125 Y64.985 E9.71095
G1 X193.124 Y75.223 E10.21594
G1 X193.114 Y75.927 E10.25067
G1 X193.061 Y76.864 E10.29696
G1 X192.928 Y77.792 E10.3432
G1 X192.716 Y78.706 E10.38948
G1 X192.428 Y79.598 E10.43571
G1 X192.064 Y80.463 E10.482
G1 X191.628 Y81.293 E10.52825
G1 X190.962 Y82.308 E10.58813
G1 X190.578 Y82.827 E10.61997
G1 X189.082 Y84.912 E10.74655
G1 X187.664 Y87.013 E10.87158
G1 X186.326 Y89.121 E10.99473
G1 X185.022 Y91.31 E11.12041
G1 X183.806 Y93.49 E11.24353
G1 X182.646 Y95.714 E11.36726
G1 X181.532 Y98.004 E11.49287
G1 X180.506 Y100.276 E11.61583
G1 X179.531 Y102.611 E11.74064
G1 X178.613 Y104.99 E11.86642
G1 X177.793 Y107.32 E11.98825
G1 X177.024 Y109.712 E12.11219
G1 X176.316 Y112.146 E12.23722
G1 X175.686 Y114.57 E12.36075
G1 X175.116 Y117.048 E12.48617
G1 X174.619 Y119.518 E12.61045
G1 X174.203 Y121.954 E12.73234
G1 X173.844 Y124.483 E12.85834
G1 X173.559 Y126.991 E12.98284
G1 X173.35 Y129.456 E13.10486
G1 X173.209 Y131.952 E13.22817
G1 X173.125 Y135.901 E13.423
G1 X173.124 Y143.675 E13.80645
G1 X173.114 Y144.381 E13.84128
G1 X173.105 Y144.684 E13.85623
G1 X173.043 Y146.169 E13.92954
G1 X173.029 Y146.457 E13.94376
G1 X172.96 Y150.019 E14.11949
G1 X172.995 Y152.537 E14.2437
G1 X173.043 Y153.86 E14.309
G1 X173.103 Y155.239 E14.37709
G1 X173.112 Y155.553 E14.39258
G1 X173.125 Y156.522 E14.44038
G1 X173.124 Y194.415 E16.30945
G1 X173.114 Y195.142 E16.34531
G1 X173.061 Y196.079 E16.3916
G1 X172.929 Y197.007 E16.43784
G1 X172.718 Y197.921 E16.48411
G1 X172.429 Y198.813 E16.53036
G1 X172.066 Y199.678 E16.57663
G1 X171.631 Y200.509 E16.62289
G1 X171.126 Y201.299 E16.66914
G1 X170.556 Y202.044 E16.71541
G1 X169.925 Y202.738 E16.76167
G1 X169.236 Y203.375 E16.80796
G1 X168.496 Y203.951 E16.85421
G1 X167.71 Y204.462 E16.90045
G1 X166.883 Y204.904 E16.94671
G1 X166.021 Y205.274 E16.99298
G1 X165.131 Y205.569 E17.03922
G1 X164.219 Y205.788 E17.08549
G1 X163.292 Y205.928 E17.13173
G1 X162.424 Y205.987 E17.17464
G1 X162.104 Y205.996 E17.19043
G1 X161.795 Y206 E17.20567
G1 X43.425 Y205.999 E23.04426
G1 X42.57 Y205.987 E23.08644
G1 X42.034 Y205.966 E23.1129
G1 X41.716 Y205.946 E23.12861
G1 X41.147 Y205.896 E23.15679
G1 X40.956 Y205.874 E23.16627
G1 X40.435 Y205.801 E23.19222
G1 X40.13 Y205.751 E23.20746
G1 X39.704 Y205.673 E23.22883
G1 X39.291 Y205.583 E23.24967
G1 X39.089 Y205.535 E23.25992
G1 X38.674 Y205.428 E23.28106
G1 X38.193 Y205.288 E23.30576
G1 X37.84 Y205.176 E23.32403
G1 X36.643 Y204.718 E23.38725
G1 X35.987 Y204.422 E23.42275
G1 X35.025 Y203.93 E23.47604
G1 X34.806 Y203.804 E23.48851
G1 X34.271 Y203.475 E23.51948
G1 X34.034 Y203.32 E23.53345
G1 X33.24 Y202.748 E23.58172
G1 X32.827 Y202.422 E23.60767
G1 X32.236 Y201.922 E23.64586
G1 X31.845 Y201.566 E23.67194
G1 X30.973 Y200.676 E23.7334
G1 X30.7 Y200.364 E23.75385
G1 X30.086 Y199.595 E23.80239
G1 X29.877 Y199.308 E23.8199
G1 X29.551 Y198.835 E23.84823
G1 X29.383 Y198.577 E23.86342
G1 X29.053 Y198.037 E23.89463
G1 X28.914 Y197.794 E23.90844
G1 X28.517 Y197.033 E23.95078
G1 X28.387 Y196.758 E23.96578
G1 X28.052 Y195.972 E24.00793
G1 X27.865 Y195.481 E24.03384
G1 X27.526 Y194.437 E24.08798
G1 X27.4 Y193.971 E24.1118
G1 X27.228 Y193.235 E24.14908
G1 X27.135 Y192.765 E24.17271
G1 X27.009 Y191.976 E24.21212
G1 X27 Y191.903 E24.21575
G1 X26.93 Y191.087 E24.25614
G1 X26.895 Y190.362 E24.29195
G1 X26.883 Y189.981 E24.31075
G1 X26.875 Y189.315 E24.3436
G1 X26.876 Y30.548 E32.17476
G1 X26.888 Y29.704 E32.2164
G1 X26.91 Y29.148 E32.24384
G1 X26.922 Y28.963 E32.25299
G1 X26.985 Y28.3 E32.28584
G1 X27.068 Y27.641 E32.3186
G1 X27.196 Y26.859 E32.35769
G1 X27.291 Y26.421 E32.37979
G1 X27.342 Y26.207 E32.39064
G1 X27.43 Y25.863 E32.40816
G1 X27.463 Y25.742 E32.41434
G1 X27.589 Y25.313 E32.4364
G1 X27.698 Y24.969 E32.4542
G1 X28.154 Y23.775 E32.51724
G1 X28.458 Y23.1 E32.55376
G1 X29.048 Y21.971 E32.61659
G1 X29.234 Y21.66 E32.63446
G1 X29.853 Y20.734 E32.6894
G0 F6000 X30.174 Y20.973
G1 F900 X30.586 Y20.42 E32.72342
G1 X31.23 Y19.637 E32.77342
G1 X31.355 Y19.499 E32.78261
G1 X31.941 Y18.901 E32.82391
G1 X32.462 Y18.41 E32.85922
G1 X33.242 Y17.743 E32.90984
G1 X33.406 Y17.616 E32.92007
G1 X33.697 Y17.399 E32.93798
G1 X33.826 Y17.306 E32.94582
G1 X34.272 Y17.001 E32.97247
G1 X34.566 Y16.811 E32.98974
G1 X35.079 Y16.5 E33.01933
G1 X35.283 Y16.384 E33.0309
G1 X35.729 Y16.144 E33.05588
G1 X35.871 Y16.072 E33.06374
G1 X36.612 Y15.732 E33.10395
G1 X37.233 Y15.475 E33.1371
G1 X38.295 Y15.1 E33.19265
G1 X38.431 Y15.06 E33.19965
G1 X38.86 Y14.943 E33.22158
G1 X39.402 Y14.808 E33.24913
G1 X40.422 Y14.607 E33.30041
G1 X40.66 Y14.572 E33.31227
G1 X41.476 Y14.484 E33.35276
G1 X42.19 Y14.435 E33.38806
G1 X42.501 Y14.418 E33.40342
G1 X42.654 Y14.412 E33.41097
G1 X42.972 Y14.404 E33.42666
G1 X43.396 Y14.401 E33.44758
G1 X161.417 Y14.4 E39.26895
G1 X162.269 Y14.411 E39.31098
G1 X163.188 Y14.464 E39.35638
G1 X164.099 Y14.597 E39.40179
G1 X164.995 Y14.808 E39.4472
G1 X165.87 Y15.096 E39.49264
G1 X166.716 Y15.459 E39.53804
G1 X167.527 Y15.894 E39.58344
G1 X168.298 Y16.398 E39.62887
G1 X169.022 Y16.967 E39.67429
G1 X169.694 Y17.596 E39.71969
G1 X170.309 Y18.281 E39.7651
G1 X170.862 Y19.017 E39.81051
G1 X171.349 Y19.799 E39.85595
G1 X171.766 Y20.619 E39.90132
G1 X172.111 Y21.473 E39.94675
G1 X172.373 Y22.329 E39.99091
G1 X172.508 Y22.845 E40.01722
G1 X173.198 Y25.339 E40.14486
G1 X173.949 Y27.787 E40.27116
G1 X174.758 Y30.174 E40.39547
G1 X175.629 Y32.529 E40.51932
G1 X176.585 Y34.901 E40.64547
G1 X177.589 Y37.204 E40.76939
G1 X178.661 Y39.483 E40.89362
G1 X179.806 Y41.75 E41.01889
G1 X181.001 Y43.961 E41.14285
G1 X182.279 Y46.169 E41.26869
G1 X183.604 Y48.317 E41.39318
G1 X184.988 Y50.425 E41.51756
G1 X186.434 Y52.496 E41.64215
G1 X187.907 Y54.486 E41.76427
G1 X190.407 Y57.626 E41.96224
G1 X190.948 Y58.371 E42.00766
G1 X191.423 Y59.16 E42.05308
G1 X191.828 Y59.986 E42.09846
G1 X192.159 Y60.845 E42.14387
G1 X192.415 Y61.73 E42.18931
G1 X192.593 Y62.633 E42.23471
G1 X192.692 Y63.548 E42.2801
G1 X192.713 Y64.075 E42.30612
G1 X192.725 Y64.985 E42.35101
G1 X192.724 Y75.218 E42.85575
G1 X192.714 Y75.922 E42.89048
G1 X192.661 Y76.841 E42.93588
G1 X192.528 Y77.752 E42.98129
G1 X192.317 Y78.648 E43.0267
G1 X192.029 Y79.522 E43.07209
G1 X191.666 Y80.368 E43.11749
G1 X191.231 Y81.18 E43.16293
G1 X190.64 Y82.071 E43.21567
G1 X190.252 Y82.596 E43.24787
G1 X188.759 Y84.677 E43.3742
G1 X187.328 Y86.796 E43.50032
G1 X185.972 Y88.932 E43.62511
G1 X184.687 Y91.09 E43.749
G1 X183.46 Y93.289 E43.87321
G1 X182.275 Y95.561 E43.9996
G1 X181.185 Y97.801 E44.12247
G1 X180.131 Y100.137 E44.24888
G1 X179.16 Y102.462 E44.37316
G1 X178.242 Y104.839 E44.49885
G1 X177.407 Y107.214 E44.62302
G1 X176.642 Y109.593 E44.74629
G1 X175.934 Y112.03 E44.87146
G1 X175.293 Y114.493 E44.99699
G1 X174.727 Y116.951 E45.12141
G1 X174.228 Y119.437 E45.24648
G1 X173.807 Y121.903 E45.36987
G1 X173.444 Y124.453 E45.49692
G1 X173.166 Y126.91 E45.61888
G1 X172.947 Y129.47 E45.74561
G1 X172.809 Y131.922 E45.86675
G1 X172.725 Y135.892 E46.06261
G1 X172.724 Y143.669 E46.44621
G1 X172.714 Y144.375 E46.48104
G1 X172.706 Y144.667 E46.49545
G1 X172.644 Y146.15 E46.56866
G1 X172.629 Y146.465 E46.58422
G1 X172.56 Y150.017 E46.75945
G1 X172.595 Y152.558 E46.8848
G1 X172.643 Y153.877 E46.9499
G1 X172.703 Y155.256 E47.01798
G1 X172.712 Y155.559 E47.03294
G1 X172.725 Y156.522 E47.08044
G1 X172.724 Y194.41 E48.94926
G1 X172.714 Y195.137 E48.98512
G1 X172.661 Y196.056 E49.03053
G1 X172.529 Y196.967 E49.07593
G1 X172.318 Y197.863 E49.12134
G1 X172.031 Y198.738 E49.16676
G1 X171.668 Y199.584 E49.21217
G1 X171.234 Y200.396 E49.25758
G1 X170.73 Y201.167 E49.30301
G1 X170.162 Y201.891 E49.3484
G1 X169.533 Y202.563 E49.3938
G1 X168.848 Y203.178 E49.43921
G1 X168.112 Y203.731 E49.48462
G1 X167.331 Y204.219 E49.53004
G1 X166.511 Y204.637 E49.57544
G1 X165.657 Y204.982 E49.62087
G1 X164.777 Y205.251 E49.66626
G1 X163.876 Y205.444 E49.71171
G1 X162.963 Y205.557 E49.75709
G1 X162.413 Y205.587 E49.78426
G1 X162.093 Y205.596 E49.80005
G1 X161.795 Y205.6 E49.81475
G1 X43.43 Y205.599 E55.65309
G1 X42.575 Y205.587 E55.69526
G1 X42.059 Y205.567 E55.72074
G1 X41.741 Y205.547 E55.73645
G1 X41.193 Y205.498 E55.76359
G1 X41.002 Y205.476 E55.77307
G1 X40.5 Y205.406 E55.79807
G1 X40.195 Y205.356 E55.81332
G1 X39.781 Y205.28 E55.83408
G1 X39.383 Y205.194 E55.85416
G1 X39.181 Y205.146 E55.86441
G1 X38.777 Y205.042 E55.88498
G1 X38.314 Y204.907 E55.90877
G1 X37.961 Y204.795 E55.92704
G1 X36.807 Y204.353 E55.98799
G1 X36.151 Y204.057 E56.02349
G1 X35.225 Y203.583 E56.0748
G1 X35.006 Y203.457 E56.08726
G1 X34.49 Y203.14 E56.11713
G1 X34.253 Y202.985 E56.1311
G1 X33.487 Y202.434 E56.17764
G1 X33.074 Y202.108 E56.2036
G1 X32.506 Y201.626 E56.24034
G1 X32.115 Y201.27 E56.26642
G1 X31.274 Y200.412 E56.32568
G1 X31.001 Y200.1 E56.34613
G1 X30.409 Y199.36 E56.39288
G1 X30.2 Y199.073 E56.41039
G1 X29.886 Y198.617 E56.4377
G1 X29.718 Y198.359 E56.45288
G1 X29.4 Y197.838 E56.48299
G1 X29.261 Y197.595 E56.4968
G1 X28.879 Y196.862 E56.53757
G1 X28.749 Y196.587 E56.55257
G1 X28.426 Y195.83 E56.59317
G1 X28.239 Y195.339 E56.61908
G1 X27.912 Y194.333 E56.67126
G1 X27.786 Y193.867 E56.69507
G1 X27.621 Y193.158 E56.73098
G1 X27.528 Y192.688 E56.75461
G1 X27.406 Y191.927 E56.79263
G1 X27.397 Y191.854 E56.79625
G1 X27.329 Y191.068 E56.83517
G1 X27.294 Y190.343 E56.87097
G1 X27.283 Y189.976 E56.88908
G1 X27.275 Y189.315 E56.92169
G1 X27.276 Y30.553 E64.7526
G1 X27.288 Y29.709 E64.79424
G1 X27.309 Y29.174 E64.82065
G1 X27.321 Y28.989 E64.82979
G1 X27.382 Y28.35 E64.86145
G1 X27.465 Y27.691 E64.89421
G1 X27.588 Y26.937 E64.9319
G1 X27.68 Y26.514 E64.95325
G1 X27.731 Y26.3 E64.9641
G1 X27.816 Y25.968 E64.981
G1 X27.849 Y25.847 E64.98719
G1 X27.97 Y25.434 E65.00842
G1 X28.079 Y25.09 E65.02622
G1 X28.519 Y23.939 E65.087
G1 X28.823 Y23.264 E65.12351
G1 X29.391 Y22.176 E65.18405
G1 X29.577 Y21.865 E65.20192
G1 X30.174 Y20.973 E65.25487
G0 F6000 X30.495 Y21.212
G1 F900 X30.907 Y20.659 E65.28888
G1 X31.526 Y19.905 E65.337
G1 X31.651 Y19.767 E65.34618
G1 X32.215 Y19.192 E65.38591
G1 X32.736 Y18.701 E65.42122
G1 X33.487 Y18.059 E65.46996
G1 X33.651 Y17.932 E65.48019
G1 X33.931 Y17.723 E65.49742
G1 X34.06 Y17.63 E65.50527
G1 X34.489 Y17.337 E65.53089
G1 X34.783 Y17.147 E65.54816
G1 X35.277 Y16.847 E65.57667
G1 X35.481 Y16.731 E65.58824
G1 X35.91 Y16.501 E65.61225
G1 X36.052 Y16.429 E65.6201
G1 X36.765 Y16.101 E65.65882
G1 X37.386 Y15.844 E65.69197
G1 X38.408 Y15.483 E65.74543
G1 X38.544 Y15.443 E65.75242
G1 X38.957 Y15.331 E65.77353
G1 X39.499 Y15.196 E65.80108
G1 X40.48 Y15.003 E65.85039
G1 X40.718 Y14.968 E65.86226
G1 X41.504 Y14.883 E65.90125
G1 X42.218 Y14.834 E65.93656
G1 X42.516 Y14.818 E65.95128
G1 X42.975 Y14.804 E65.97393
G1 X43.396 Y14.801 E65.99469
G1 X161.417 Y14.8 E71.81606
G1 X162.263 Y14.811 E71.8578
G1 X163.165 Y14.864 E71.90236
G1 X164.058 Y14.996 E71.94689
G1 X164.937 Y15.207 E71.99148
G1 X165.793 Y15.495 E72.03603
G1 X166.62 Y15.857 E72.08055
G1 X167.412 Y16.291 E72.1251
G1 X168.162 Y16.794 E72.16964
G1 X168.865 Y17.361 E72.21419
G1 X169.515 Y17.987 E72.2587
G1 X170.108 Y18.669 E72.30328
G1 X170.637 Y19.401 E72.34783
G1 X171.1 Y20.176 E72.39236
G1 X171.492 Y20.99 E72.43692
G1 X171.811 Y21.835 E72.48147
G1 X171.986 Y22.43 E72.51206
G1 X172.115 Y22.923 E72.5372
G1 X172.823 Y25.481 E72.66812
G1 X173.563 Y27.895 E72.79266
G1 X174.38 Y30.305 E72.91817
G1 X175.259 Y32.681 E73.04313
G1 X176.206 Y35.031 E73.1681
G1 X177.238 Y37.398 E73.29547
G1 X178.293 Y39.641 E73.41773
G1 X179.455 Y41.941 E73.54484
G1 X180.641 Y44.136 E73.6679
G1 X181.927 Y46.359 E73.79457
G1 X183.263 Y48.525 E73.9201
G1 X184.67 Y50.668 E74.04655
G1 X186.101 Y52.717 E74.16982
G1 X187.607 Y54.752 E74.2947
G1 X190.094 Y57.876 E74.49165
G1 X190.624 Y58.606 E74.53615
G1 X191.088 Y59.381 E74.5807
G1 X191.482 Y60.194 E74.62527
G1 X191.802 Y61.038 E74.66979
G1 X192.046 Y61.908 E74.71436
G1 X192.213 Y62.795 E74.75888
G1 X192.313 Y64.081 E74.8225
G1 X192.325 Y64.985 E74.86709
G1 X192.324 Y75.212 E75.37154
G1 X192.314 Y75.916 E75.40627
G1 X192.261 Y76.817 E75.45079
G1 X192.129 Y77.711 E75.49536
G1 X191.918 Y78.589 E75.5399
G1 X191.63 Y79.445 E75.58445
G1 X191.268 Y80.272 E75.62898
G1 X190.834 Y81.064 E75.67352
G1 X190.318 Y81.833 E75.7192
G1 X189.95 Y82.331 E75.74974
G1 X188.418 Y84.466 E75.87936
G1 X187.002 Y86.563 E76.00417
G1 X185.634 Y88.719 E76.13011
G1 X184.344 Y90.885 E76.25446
G1 X183.099 Y93.115 E76.38044
G1 X181.918 Y95.38 E76.50643
G1 X180.819 Y97.64 E76.63039
G1 X179.774 Y99.954 E76.75563
G1 X178.789 Y102.312 E76.88167
G1 X177.868 Y104.699 E77.00787
G1 X177.036 Y107.063 E77.13149
G1 X176.251 Y109.506 E77.25806
G1 X175.548 Y111.922 E77.38217
G1 X174.904 Y114.4 E77.50845
G1 X174.338 Y116.861 E77.63301
G1 X173.835 Y119.362 E77.75884
G1 X173.404 Y121.885 E77.88509
G1 X173.054 Y124.348 E78.0078
G1 X172.764 Y126.902 E78.13459
G1 X172.55 Y129.415 E78.25899
G1 X172.409 Y131.919 E78.38269
G1 X172.325 Y135.884 E78.57831
G1 X172.324 Y143.663 E78.96201
G1 X172.314 Y144.369 E78.99684
G1 X172.306 Y144.651 E79.01075
G1 X172.244 Y146.131 E79.08382
G1 X172.229 Y146.438 E79.09898
G1 X172.159 Y150.015 E79.27545
G1 X172.196 Y152.577 E79.40183
G1 X172.243 Y153.895 E79.46688
G1 X172.303 Y155.274 E79.53496
G1 X172.312 Y155.565 E79.54932
G1 X172.325 Y156.522 E79.59653
G1 X172.324 Y194.404 E81.46506
G1 X172.314 Y195.131 E81.50092
G1 X172.262 Y196.033 E81.54548
G1 X172.13 Y196.926 E81.59001
