;FLAVOR:Marlin
;TIME:18573
;Filament used: 15.7188m
;Layer height: 0.2
;MINX:1.5
;MINY:69
;MINZ:0.3
;MAXX:218.5
;MAXY:151
;MAXZ:4.9
;Generated with Creality Slicer 4.8.2-172
M140 S80
M105
M190 S80
M104 S235
M105
M109 S235
M82 ;absolute extrusion mode

G28 ;Home

G92 E0 ;Reset Extruder
G1 Z2.0 F3000 ;Move Z Axis up
G1 X10.1 Y20 Z0.28 F5000.0 ;Move to start position
G1 X10.1 Y200.0 Z0.28 F1500.0 E15 ;Draw the first line
G1 X10.4 Y200.0 Z0.28 F5000.0 ;Move to side a little
G1 X10.4 Y20 Z0.28 F1500.0 E30 ;Draw the second line
G92 E0 ;Reset Extruder
G1 Z2.0 F3000 ;Move Z Axis up

G92 E0
G92 E0
G1 F1200 E-3
;LAYER_COUNT:24
;LAYER:0
M107
G0 F6000 X14.325 Y69.33 Z0.3
;TYPE:SKIRT
G1 F1200 E0
G1 F900 X14.843 Y69.24 E0.02623
G1 X15.476 Y69.146 E0.05816
G1 X16.297 Y69.056 E0.09936
G1 X16.78 Y69.029 E0.1235
G1 X17.3 Y69.011 E0.14946
G1 X17.576 Y69.005 E0.16323
G1 X17.995 Y69.001 E0.18413
G1 X201.805 Y69 E9.35445
G1 X202.794 Y69.013 E9.4038
G1 X203.336 Y69.034 E9.43086
G1 X203.712 Y69.058 E9.44965
G1 X204.404 Y69.125 E9.48434
G1 X204.639 Y69.155 E9.49616
G1 X205.017 Y69.209 E9.51521
G1 X205.158 Y69.232 E9.52234
G1 X205.709 Y69.337 E9.55032
G1 X206.01 Y69.402 E9.56568
G1 X206.586 Y69.543 E9.59527
G1 X206.846 Y69.614 E9.60872
G1 X207.388 Y69.777 E9.63695
G1 X207.552 Y69.831 E9.64557
G1 X208.342 Y70.125 E9.68762
G1 X208.959 Y70.382 E9.72097
G1 X209.539 Y70.643 E9.7527
G1 X210.116 Y70.941 E9.7851
G1 X210.417 Y71.108 E9.80227
G1 X211.464 Y71.769 E9.86404
G1 X212.059 Y72.193 E9.9005
G1 X212.854 Y72.816 E9.95089
G1 X213.027 Y72.965 E9.96228
G1 X213.333 Y73.239 E9.98277
G1 X213.459 Y73.356 E9.99135
G1 X213.884 Y73.773 E10.02105
G1 X214.085 Y73.981 E10.03548
G1 X214.482 Y74.415 E10.06483
G1 X214.666 Y74.627 E10.07883
G1 X215.015 Y75.049 E10.10615
G1 X215.124 Y75.188 E10.11497
G1 X215.391 Y75.544 E10.13717
G1 X215.564 Y75.784 E10.15193
G1 X215.926 Y76.318 E10.18411
G1 X216.081 Y76.562 E10.19853
G1 X216.34 Y76.991 E10.22354
G1 X216.391 Y77.08 E10.22865
G1 X216.613 Y77.487 E10.25178
G1 X216.769 Y77.788 E10.2687
G1 X216.932 Y78.114 E10.28688
G1 X217.152 Y78.597 E10.31336
G1 X217.255 Y78.838 E10.32644
G1 X217.497 Y79.455 E10.3595
G1 X217.604 Y79.754 E10.37534
G1 X217.824 Y80.438 E10.41119
G1 X217.916 Y80.76 E10.4279
G1 X218.05 Y81.276 E10.4545
G1 X218.101 Y81.494 E10.46567
G1 X218.229 Y82.124 E10.49774
G1 X218.265 Y82.332 E10.50827
G1 X218.331 Y82.765 E10.53012
G1 X218.367 Y83.037 E10.54381
G1 X218.412 Y83.431 E10.56359
G1 X218.457 Y83.974 E10.59078
G1 X218.473 Y84.258 E10.60497
G1 X218.489 Y84.736 E10.62883
G1 X218.5 Y85.657 E10.67478
G1 X218.499 Y134.45 E13.10907
G1 X218.488 Y135.272 E13.15009
G1 X218.471 Y135.755 E13.1742
G1 X218.455 Y136.034 E13.18814
G1 X218.399 Y136.675 E13.22024
G1 X218.354 Y137.062 E13.23968
G1 X218.22 Y137.918 E13.28291
G1 X218.153 Y138.258 E13.3002
G1 X217.974 Y139.023 E13.33939
G1 X217.868 Y139.412 E13.35951
G1 X217.583 Y140.307 E13.40637
G1 X217.462 Y140.637 E13.4239
G1 X217.235 Y141.206 E13.45447
G1 X217.122 Y141.468 E13.4687
G1 X216.852 Y142.048 E13.50062
G1 X216.73 Y142.291 E13.51419
G1 X216.498 Y142.727 E13.53883
G1 X216.423 Y142.861 E13.54649
G1 X216.17 Y143.29 E13.57134
G1 X215.99 Y143.58 E13.58836
G1 X215.299 Y144.568 E13.64851
G1 X214.837 Y145.157 E13.68586
G1 X214.117 Y145.986 E13.74064
G1 X213.949 Y146.161 E13.75274
G1 X213.692 Y146.42 E13.77095
G1 X213.613 Y146.497 E13.77645
G1 X213.173 Y146.904 E13.80635
G1 X212.88 Y147.16 E13.82577
G1 X211.944 Y147.892 E13.88505
G1 X211.356 Y148.303 E13.92084
G1 X210.565 Y148.807 E13.96763
G1 X209.95 Y149.137 E14.00245
G1 X209.435 Y149.393 E14.03115
G1 X208.758 Y149.702 E14.06827
G1 X208.286 Y149.898 E14.09377
G1 X207.097 Y150.313 E14.1566
G1 X206.748 Y150.413 E14.17471
G1 X206.148 Y150.567 E14.20562
G1 X205.914 Y150.62 E14.21759
G1 X205.402 Y150.723 E14.24364
G1 X205.21 Y150.757 E14.25337
G1 X204.73 Y150.832 E14.27761
G1 X204.457 Y150.868 E14.29135
G1 X204.068 Y150.912 E14.31088
G1 X203.525 Y150.957 E14.33806
G1 X203.241 Y150.973 E14.35225
G1 X202.763 Y150.989 E14.37611
G1 X201.842 Y151 E14.42206
G1 X18.038 Y150.999 E23.59208
G1 X17.198 Y150.987 E23.63399
G1 X16.638 Y150.965 E23.66195
G1 X16.24 Y150.939 E23.68185
G1 X15.444 Y150.857 E23.72178
G1 X15.228 Y150.827 E23.73266
G1 X14.834 Y150.765 E23.75255
G1 X14.692 Y150.74 E23.75975
G1 X14.327 Y150.67 E23.77829
G1 X14.128 Y150.628 E23.78844
G1 X13.4 Y150.448 E23.82585
G1 X12.839 Y150.289 E23.85494
G1 X12.113 Y150.056 E23.89298
G1 X12.038 Y150.029 E23.89696
G1 X11.25 Y149.71 E23.93937
G1 X10.63 Y149.431 E23.97329
G1 X9.695 Y148.955 E24.02563
G1 X9.567 Y148.882 E24.03299
G1 X9.186 Y148.655 E24.05511
G1 X8.842 Y148.44 E24.07535
G1 X8.118 Y147.946 E24.11908
G1 X7.839 Y147.739 E24.13641
G1 X7.234 Y147.257 E24.175
G1 X7.129 Y147.167 E24.1819
G1 X6.672 Y146.752 E24.2127
G1 X6.178 Y146.278 E24.24686
G1 X5.456 Y145.516 E24.29923
G1 X5.314 Y145.351 E24.31009
G1 X5.012 Y144.984 E24.3338
G1 X4.882 Y144.819 E24.34428
G1 X4.589 Y144.429 E24.36862
G1 X4.515 Y144.326 E24.37494
G1 X4.115 Y143.73 E24.41075
G1 X3.858 Y143.318 E24.43498
G1 X3.496 Y142.692 E24.47106
G1 X3.25 Y142.233 E24.49704
G1 X2.825 Y141.347 E24.54606
G1 X2.802 Y141.293 E24.54899
G1 X2.565 Y140.69 E24.58131
G1 X2.342 Y140.067 E24.61433
G1 X2.082 Y139.239 E24.65763
G1 X2.066 Y139.18 E24.66068
G1 X1.893 Y138.442 E24.69849
G1 X1.763 Y137.787 E24.73181
G1 X1.607 Y136.734 E24.78492
G1 X1.59 Y136.563 E24.79349
G1 X1.55 Y136.023 E24.8205
G1 X1.526 Y135.542 E24.84453
G1 X1.513 Y135.166 E24.8633
G1 X1.5 Y134.226 E24.9102
G1 X1.501 Y85.529 E27.3397
G1 X1.513 Y84.688 E27.38167
G1 X1.533 Y84.163 E27.40788
G1 X1.553 Y83.841 E27.42397
G1 X1.612 Y83.202 E27.45599
G1 X1.642 Y82.954 E27.46845
G1 X1.712 Y82.467 E27.493
G1 X1.737 Y82.317 E27.50059
G1 X1.921 Y81.435 E27.54554
G1 X2.092 Y80.757 E27.58042
G1 X2.418 Y79.694 E27.63589
G1 X2.524 Y79.402 E27.65139
G1 X2.761 Y78.805 E27.68344
G1 X2.882 Y78.524 E27.6987
G1 X3.043 Y78.167 E27.71824
G1 X3.261 Y77.724 E27.74287
G1 X3.375 Y77.505 E27.75519
G1 X3.714 Y76.9 E27.78979
G1 X3.886 Y76.615 E27.80639
G1 X4.269 Y76.024 E27.84153
G1 X4.46 Y75.749 E27.85823
G1 X4.828 Y75.25 E27.88917
G1 X4.989 Y75.044 E27.90221
G1 X5.357 Y74.598 E27.93106
G1 X5.444 Y74.498 E27.93767
G1 X5.675 Y74.241 E27.95491
G1 X5.903 Y73.995 E27.97164
G1 X6.4 Y73.492 E28.00692
G1 X6.595 Y73.307 E28.02033
G1 X7.019 Y72.925 E28.04881
G1 X7.136 Y72.825 E28.05648
G1 X7.753 Y72.335 E28.09579
G1 X8.283 Y71.944 E28.12865
G1 X9.113 Y71.388 E28.17849
G1 X9.349 Y71.245 E28.19226
G1 X10.001 Y70.879 E28.22956
G1 X10.305 Y70.722 E28.24663
G1 X10.882 Y70.446 E28.27854
G1 X11.127 Y70.337 E28.29192
G1 X11.693 Y70.104 E28.32246
G1 X11.851 Y70.044 E28.33089
G1 X12.557 Y69.802 E28.36812
G1 X13.192 Y69.609 E28.40124
G1 X14.325 Y69.33 E28.45945
G0 F6000 X14.401 Y69.723
G1 F900 X14.902 Y69.636 E28.48482
G1 X15.535 Y69.542 E28.51675
G1 X16.326 Y69.455 E28.55645
G1 X16.794 Y69.428 E28.57983
G1 X17.314 Y69.41 E28.60579
G1 X17.58 Y69.404 E28.61907
G1 X17.995 Y69.401 E28.63977
G1 X201.805 Y69.4 E37.81009
G1 X202.788 Y69.413 E37.85914
G1 X203.31 Y69.434 E37.8852
G1 X203.686 Y69.458 E37.904
G1 X204.353 Y69.521 E37.93742
G1 X204.588 Y69.551 E37.94924
G1 X204.953 Y69.604 E37.96764
G1 X205.094 Y69.627 E37.97477
G1 X205.624 Y69.728 E38.00169
G1 X205.925 Y69.793 E38.01705
G1 X206.48 Y69.928 E38.04555
G1 X206.74 Y69.999 E38.05899
G1 X207.263 Y70.157 E38.08625
G1 X207.427 Y70.211 E38.09486
G1 X208.188 Y70.494 E38.13537
G1 X208.805 Y70.751 E38.16872
G1 X209.366 Y71.004 E38.19942
G1 X209.922 Y71.291 E38.23064
G1 X210.223 Y71.458 E38.24781
G1 X211.232 Y72.095 E38.30734
G1 X211.827 Y72.519 E38.34379
G1 X212.592 Y73.119 E38.3923
G1 X212.765 Y73.268 E38.40369
G1 X213.061 Y73.532 E38.42347
G1 X213.187 Y73.649 E38.43205
G1 X213.596 Y74.051 E38.46066
G1 X213.797 Y74.259 E38.4751
G1 X214.18 Y74.677 E38.50338
G1 X214.364 Y74.889 E38.51738
G1 X214.7 Y75.296 E38.54372
G1 X214.809 Y75.435 E38.55253
G1 X215.067 Y75.778 E38.57394
G1 X215.24 Y76.018 E38.5887
G1 X215.588 Y76.532 E38.61967
G1 X215.743 Y76.776 E38.63409
G1 X215.993 Y77.19 E38.65822
G1 X216.044 Y77.279 E38.66334
G1 X216.258 Y77.671 E38.68562
G1 X216.414 Y77.972 E38.70253
G1 X216.572 Y78.289 E38.7202
G1 X216.784 Y78.754 E38.7457
G1 X216.887 Y78.995 E38.75877
G1 X217.12 Y79.589 E38.79061
G1 X217.227 Y79.888 E38.80645
G1 X217.439 Y80.548 E38.84104
G1 X217.531 Y80.87 E38.85774
G1 X217.66 Y81.367 E38.88336
G1 X217.711 Y81.585 E38.89453
G1 X217.835 Y82.192 E38.92544
G1 X217.871 Y82.4 E38.93597
G1 X217.934 Y82.817 E38.95701
G1 X217.97 Y83.089 E38.9707
G1 X218.015 Y83.474 E38.99004
G1 X218.057 Y83.997 E39.01621
G1 X218.073 Y84.281 E39.03041
G1 X218.089 Y84.741 E39.05337
G1 X218.1 Y85.657 E39.09907
G1 X218.099 Y134.445 E41.53311
G1 X218.088 Y135.267 E41.57413
G1 X218.072 Y135.732 E41.59734
G1 X218.056 Y136.011 E41.61128
G1 X218.002 Y136.628 E41.64218
G1 X217.957 Y137.015 E41.66162
G1 X217.828 Y137.84 E41.70328
G1 X217.761 Y138.18 E41.72057
G1 X217.588 Y138.918 E41.75839
G1 X217.482 Y139.307 E41.7785
G1 X217.207 Y140.169 E41.82364
G1 X217.086 Y140.499 E41.84118
G1 X216.867 Y141.048 E41.87067
G1 X216.754 Y141.31 E41.8849
G1 X216.494 Y141.868 E41.91561
G1 X216.372 Y142.111 E41.92918
G1 X216.149 Y142.532 E41.95295
G1 X216.074 Y142.666 E41.96061
G1 X215.83 Y143.079 E41.98454
G1 X215.65 Y143.369 E42.00157
G1 X214.984 Y144.321 E42.05953
G1 X214.522 Y144.91 E42.09688
G1 X213.829 Y145.709 E42.14965
G1 X213.661 Y145.884 E42.16175
G1 X213.413 Y146.134 E42.17932
G1 X213.334 Y146.211 E42.18482
G1 X212.909 Y146.602 E42.21363
G1 X212.616 Y146.858 E42.23304
G1 X211.715 Y147.564 E42.29015
G1 X211.127 Y147.975 E42.32594
G1 X210.35 Y148.469 E42.37188
G1 X209.772 Y148.779 E42.4046
G1 X209.257 Y149.035 E42.43329
G1 X208.604 Y149.333 E42.4691
G1 X208.132 Y149.529 E42.4946
G1 X206.987 Y149.929 E42.55511
G1 X206.638 Y150.029 E42.57322
G1 X206.06 Y150.177 E42.60299
G1 X205.826 Y150.23 E42.61496
G1 X205.332 Y150.33 E42.64011
G1 X205.14 Y150.364 E42.64983
G1 X204.678 Y150.435 E42.67315
G1 X204.405 Y150.471 E42.68689
G1 X204.025 Y150.515 E42.70598
G1 X203.502 Y150.557 E42.73215
G1 X203.218 Y150.573 E42.74635
G1 X202.758 Y150.589 E42.76931
G1 X201.842 Y150.6 E42.81501
G1 X18.044 Y150.599 E51.98473
G1 X17.204 Y150.587 E52.02664
G1 X16.664 Y150.565 E52.05361
G1 X16.266 Y150.539 E52.0735
G1 X15.499 Y150.461 E52.11197
G1 X15.283 Y150.431 E52.12285
G1 X14.903 Y150.371 E52.14204
G1 X14.761 Y150.346 E52.14923
G1 X14.41 Y150.279 E52.16706
G1 X14.211 Y150.237 E52.17721
G1 X13.51 Y150.063 E52.21324
G1 X12.949 Y149.904 E52.24233
G1 X12.249 Y149.679 E52.27902
G1 X12.174 Y149.652 E52.28299
G1 X11.414 Y149.345 E52.32389
G1 X10.794 Y149.066 E52.35781
G1 X9.893 Y148.608 E52.40823
G1 X9.765 Y148.535 E52.41558
G1 X9.398 Y148.316 E52.4369
G1 X9.054 Y148.101 E52.45714
G1 X8.356 Y147.625 E52.49929
G1 X8.077 Y147.418 E52.51663
G1 X7.495 Y146.953 E52.55379
G1 X7.39 Y146.863 E52.56069
G1 X6.949 Y146.464 E52.59036
G1 X6.455 Y145.99 E52.62452
G1 X5.76 Y145.255 E52.67498
G1 X5.618 Y145.09 E52.68584
G1 X5.326 Y144.736 E52.70874
G1 X5.196 Y144.571 E52.71922
G1 X4.913 Y144.196 E52.74266
G1 X4.839 Y144.093 E52.74898
G1 X4.454 Y143.518 E52.78351
G1 X4.197 Y143.106 E52.80773
G1 X3.848 Y142.503 E52.84249
G1 X3.602 Y142.044 E52.86847
G1 X3.193 Y141.191 E52.91567
G1 X3.17 Y141.137 E52.9186
G1 X2.942 Y140.555 E52.94978
G1 X2.719 Y139.932 E52.9828
G1 X2.469 Y139.134 E53.02452
G1 X2.453 Y139.075 E53.02757
G1 X2.286 Y138.365 E53.06395
G1 X2.156 Y137.71 E53.09727
G1 X2.005 Y136.695 E53.14847
G1 X1.988 Y136.524 E53.15704
G1 X1.949 Y136.003 E53.1831
G1 X1.925 Y135.522 E53.20713
G1 X1.913 Y135.16 E53.2252
G1 X1.9 Y134.226 E53.2718
G1 X1.901 Y85.535 E55.70101
G1 X1.913 Y84.694 E55.74297
G1 X1.932 Y84.188 E55.76823
G1 X1.952 Y83.866 E55.78433
G1 X2.009 Y83.25 E55.81519
G1 X2.039 Y83.002 E55.82765
G1 X2.106 Y82.532 E55.85134
G1 X2.131 Y82.382 E55.85893
G1 X2.309 Y81.533 E55.9022
G1 X2.48 Y80.855 E55.93709
G1 X2.794 Y79.83 E55.99057
G1 X2.9 Y79.538 E56.00607
G1 X3.128 Y78.963 E56.03693
G1 X3.249 Y78.682 E56.05219
G1 X3.406 Y78.335 E56.07119
G1 X3.616 Y77.909 E56.09489
G1 X3.73 Y77.69 E56.10721
G1 X4.057 Y77.107 E56.14056
G1 X4.229 Y76.822 E56.15716
G1 X4.598 Y76.252 E56.19104
G1 X4.789 Y75.977 E56.20774
G1 X5.143 Y75.497 E56.2375
G1 X5.304 Y75.291 E56.25054
G1 X5.659 Y74.861 E56.27836
G1 X5.969 Y74.512 E56.30165
G1 X6.197 Y74.266 E56.31839
G1 X6.675 Y73.782 E56.35232
G1 X6.87 Y73.597 E56.36573
G1 X7.279 Y73.229 E56.39318
G1 X7.396 Y73.129 E56.40086
G1 X7.99 Y72.657 E56.43871
G1 X8.52 Y72.266 E56.47157
G1 X9.32 Y71.73 E56.51961
G1 X9.556 Y71.587 E56.53338
G1 X10.185 Y71.235 E56.56934
G1 X10.489 Y71.078 E56.58641
G1 X11.044 Y70.811 E56.61714
G1 X11.289 Y70.702 E56.63052
G1 X11.835 Y70.477 E56.65998
G1 X11.993 Y70.417 E56.66841
G1 X12.674 Y70.185 E56.7043
G1 X13.309 Y69.992 E56.73741
G1 X14.401 Y69.723 E56.79352
G0 F6000 X14.476 Y70.115
G1 F900 X14.961 Y70.032 E56.81807
G1 X15.594 Y69.938 E56.85
G1 X16.355 Y69.854 E56.88819
G1 X16.808 Y69.828 E56.91083
G1 X17.328 Y69.81 E56.93679
G1 X17.584 Y69.804 E56.94957
G1 X17.995 Y69.801 E56.97007
G1 X201.805 Y69.8 E66.14039
G1 X202.782 Y69.813 E66.18914
G1 X203.285 Y69.833 E66.21425
G1 X203.661 Y69.857 E66.23305
G1 X204.303 Y69.918 E66.26522
G1 X204.538 Y69.948 E66.27704
G1 X204.888 Y69.999 E66.29469
G1 X205.029 Y70.022 E66.30181
G1 X205.54 Y70.119 E66.32776
G1 X205.841 Y70.184 E66.34313
G1 X206.375 Y70.314 E66.37055
G1 X206.635 Y70.385 E66.38399
G1 X207.138 Y70.537 E66.41021
G1 X207.302 Y70.591 E66.41882
G1 X208.034 Y70.863 E66.45778
G1 X208.651 Y71.12 E66.49113
G1 X209.193 Y71.364 E66.52078
G1 X209.728 Y71.641 E66.55084
G1 X210.029 Y71.808 E66.56801
G1 X210.999 Y72.42 E66.62523
G1 X211.594 Y72.844 E66.66168
G1 X212.331 Y73.422 E66.70841
G1 X212.504 Y73.571 E66.7198
G1 X212.789 Y73.826 E66.73888
G1 X212.915 Y73.943 E66.74746
G1 X213.309 Y74.329 E66.77498
G1 X213.51 Y74.537 E66.78941
G1 X213.878 Y74.939 E66.8166
G1 X214.062 Y75.151 E66.8306
G1 X214.385 Y75.543 E66.85594
G1 X214.494 Y75.682 E66.86476
G1 X214.742 Y76.012 E66.88535
G1 X214.915 Y76.252 E66.90011
G1 X215.251 Y76.747 E66.92996
G1 X215.406 Y76.991 E66.94438
G1 X215.646 Y77.389 E66.96757
G1 X215.697 Y77.478 E66.97269
G1 X215.903 Y77.856 E66.99416
G1 X216.059 Y78.157 E67.01108
G1 X216.212 Y78.464 E67.02819
G1 X216.416 Y78.911 E67.0527
G1 X216.519 Y79.152 E67.06578
G1 X216.744 Y79.724 E67.09644
G1 X216.851 Y80.023 E67.11229
G1 X217.055 Y80.658 E67.14556
G1 X217.147 Y80.98 E67.16227
G1 X217.271 Y81.458 E67.18691
G1 X217.322 Y81.676 E67.19808
G1 X217.441 Y82.26 E67.22781
G1 X217.477 Y82.468 E67.23834
G1 X217.538 Y82.87 E67.25863
G1 X217.574 Y83.142 E67.27232
G1 X217.617 Y83.516 E67.2911
G1 X217.658 Y84.019 E67.31628
G1 X217.674 Y84.303 E67.33047
G1 X217.689 Y84.746 E67.35258
G1 X217.7 Y85.657 E67.39804
G1 X217.699 Y134.439 E69.83178
G1 X217.688 Y135.261 E69.87279
G1 X217.672 Y135.709 E69.89516
G1 X217.656 Y135.988 E69.9091
G1 X217.605 Y136.582 E69.93884
G1 X217.56 Y136.969 E69.95828
G1 X217.436 Y137.763 E69.99837
G1 X217.369 Y138.103 E70.01566
G1 X217.202 Y138.813 E70.05205
G1 X217.096 Y139.202 E70.07217
G1 X216.832 Y140.031 E70.11557
G1 X216.711 Y140.361 E70.13311
G1 X216.5 Y140.89 E70.16152
G1 X216.387 Y141.152 E70.17576
G1 X216.137 Y141.689 E70.20531
G1 X216.015 Y141.932 E70.21887
G1 X215.8 Y142.337 E70.24175
G1 X215.725 Y142.471 E70.24941
G1 X215.49 Y142.868 E70.27243
G1 X215.31 Y143.158 E70.28946
G1 X214.67 Y144.074 E70.34521
G1 X214.208 Y144.663 E70.38255
G1 X213.54 Y145.432 E70.43337
G1 X213.372 Y145.607 E70.44547
G1 X213.054 Y145.924 E70.46788
G1 X212.646 Y146.301 E70.49559
G1 X212.353 Y146.557 E70.515
G1 X211.486 Y147.236 E70.56994
G1 X210.898 Y147.647 E70.60573
G1 X210.135 Y148.131 E70.65081
G1 X209.594 Y148.421 E70.68144
G1 X209.079 Y148.677 E70.71013
G1 X208.451 Y148.963 E70.74456
G1 X207.979 Y149.159 E70.77005
G1 X206.877 Y149.544 E70.82829
G1 X206.528 Y149.644 E70.8464
G1 X205.971 Y149.787 E70.87509
G1 X205.737 Y149.84 E70.88706
G1 X205.263 Y149.936 E70.91119
G1 X205.071 Y149.97 E70.92092
G1 X204.626 Y150.038 E70.94338
G1 X204.353 Y150.074 E70.95712
G1 X203.983 Y150.117 E70.9757
G1 X203.48 Y150.158 E71.00088
